X:9
T:Earl of Elgin
R:Strathspey
C:Nathaniel Gow
O:Scotland
A:Inver (Perth)
B:(n49) Gow Collection of Scottish Dance Music - Oak Publications
Z:transcription (livre) : <anamnese@laposte.net>
N:
M:C
L:1/8
Q:1/4=150 %tempo exact non connu
K:E
G|E>GBG B/B/B BG | B/d/e/f/ a/g/f/e/ fEEG |\
  E>GBG B/B/B Ba | {a}gf/e/ {g}fe/d/ eE E |
| a| ~g>feB egeB | c/d/e/f/ e/d/c/B/ cf-f>a |\
 ~g>feB eg{eg}bB | ~c>B c/B/A/G/ Bcca |
     ~g>feB egeB | c/d/e/f/ e/d/c/B/ cf-fa |\
   ge ~f2 {ef}g>e eg ||
  E>GBG B/B/B BG | B/d/e/f/ a/g/f/e/ fEEG |\ %reprise D.C
  E>GBG B/B/B Ba | {a}gf/e/ {g}fe/d/ eE E |]
